X:1
T:Title
%%score { ( 1 4 5 ) | ( 2 3 ) }
L:1/8
M:3/4
K:A
V:1 treble nm="Grand Piano"
V:4 treble 
V:5 treble 
V:2 bass 
V:3 bass 
V:1
 z2 z[Q:1/4=100] [A,CE] [A,EA][EAc] | [DFB]2 [CEA]2 [B,DG]2 | [A,CA]4 [Ee]2 | %3
 [EG][EA] [Ed]2 [Ec]2 | c2 B[Gd] [Gd][Gd] | [Gd]3 B GE | e2 z2 z2 | d4 z2 | E2- [EG]2 E2 | %9
 D4[K:bass] z2 | [A,C]4[K:treble] [CA]c | z E z A [DEB]c | [CEA]4 E2 | z2 d2 G2 | %14
 [EA]2 [Ae]2 [Fd]2 | [Ac]>[DEB] [CEA]2 [B,EG]2 |[M:2/4] [CEA]4 |] %17
V:2
 z2 z A,, C,A,, | D,2 E,2 E,2 | F,4 [C,A,]2 | [D,B,][C,A,] [G,,B,]2 [A,,A,]2 | [E,E]4 z2 | B,4 z2 | %6
 C,2 A,,[A,CE] [G,B,E][=G,A,E] | A,4 A,2 | z2 B,2 C2 | B,2 z C z C | z2 z2 A,2 | E,E, z C z E | %12
 A,,4 E,2 | E2- [B,E][E,B,] [E,B,E][D,B,] | [C,A,]2 [A,,C]2 [D,B,]2 | E2 z2 z2 |[M:2/4] A,,4 |] %17
V:3
 x6 | x6 | x6 | x6 | A,2 G,[E,B,] [E,B,][E,B,] | E,3- [E,DE] [E,B,E][D,G,] | A,4 z2 | %7
 [F,D]2 D,2 C,D, | E,4 z2 | z2 E,2 E,2 | A,,4 z E | z2 E,2 E,2 | x6 | A,2 z2 z2 | x6 | %15
 E,3 E, E,E, |[M:2/4] x4 |] %17
V:4
 x6 | x6 | x6 | x6 | x6 | x6 | E2- [Ec]A Bc | z2 F2 [Ae][Ff] | [CA]2 z2 z2 | %9
 z[K:bass] E, .A,2 [B,D]E | x4[K:treble] x2 | [DB]4 z2 | x6 | c2 z E z E | x6 | x6 |[M:2/4] x4 |] %17
V:5
 x6 | x6 | x6 | x6 | x6 | x6 | x6 | x6 | x6 | x[K:bass] x5 | x4[K:treble] x2 | z2 E2 z2 | x6 | x6 | %14
 x6 | x6 |[M:2/4] x4 |] %17

